X: 5
T: Lochiel's Welcome To Glasgow
R: jig
M: 6/8
L: 1/8
G: Charlie Hunter
K: Amix
|:e|"A"ABA Ace|a2e fec|"Bm"BcB Bce|"D"fea "E7"fec|"A"ABA Ace|
"F#m"a2e fec|"D"efe "E"efa|"A"ABA A2:||:e|"A"cee cee|"D"fdf fed|
"A"cee cee|"A"ABc "E"cBA|"A"cee cee|"D"fdf fec|"Bm"efe efa|"A"ABA A2:|
